X: 10592
T: BACK OF THE CHANGE HOUSE
Q: "Reel."
%R: reel
B: W. Hamilton "Universal Tune-Book" Vol. 1 Glasgow 1844 p.59 #2
S: http://imslp.org/wiki/Hamilton's_Universal_Tune-Book_(Various)
Z: 2016 John Chambers <jc:trillian.mit.edu>
M: C
L: 1/8
K: D
% - - - - - - - - - - - - - - - - - - - - - - - - -
B |\
A>FAf Te>dBd | TAFAB TdedB |\
TA>FAf e>dBg | (f/g/a) (AB) d2d :|\
g |\
Tf>edf e>dBg | (Tfef)g Ta>bag |
f>d{ef}g>f Te>dBg | (f/g/a) AB d2d>g |\
Tf>edf e>dBg | Tf>efg a>baf |\
g<bf<a e>dBg | (f/g/a) AB d2d |]
% - - - - - - - - - - - - - - - - - - - - - - - - -

%%sep 1 1 500
%%sep 1 1 500

